BOEHME
CUT[WI I BIN VERWICHA]
REG[Europa, Mitteleuropa, Deutschland; Oesterreich]
TRD[]
FKT[]
SIG[B0458]
KEY[B0458   08  D 3/4]
MEL[5+1  +177246  655-5
    13  323232  1_0_
    5+1  +177246  655-5
    13  323232  1_0_
    36  65#5#_37  766_
    36  +17+17+17  6_.6b
    5+1  +177246  655_
    13  323232  1_0_ //]
BEM[]
MEL_SEM[5 0 -1 0 -9 3 4 0 -2 0 -12 5 4 0 -2 2 -2 2 -2 -2 7 5 0 -1 0 -9 3 4 0 -2 0 -12 5 4 0 -2 2 -2 2 -2 -2 4 5 0 -1 0 -4 7 0 -2 0 -5 5 3 -1 1 -1 1 -1 -2 -1 -1 5 0 -1 0 -9 3 4 0 -2 0 -7 4 0 -2 2 -2 2 -2 -2]
MEL_RAW[5+1  +177246  655-5
    13  323232  10
    5+1  +177246  655-5
    13  323232  10
    36  65#5#37  766
    36  +17+17+17  66b
    5+1  +177246  655
    13  323232  10]
NO_REP[5+172465-5
    132323210
    5+172465-5
    132323210
    365#376
    36+17+17+176b
    5+172465
    132323210]
RTM[xx  xxxxxx  xxxx
    xx  xxxxxx  x_x_
    xx  xxxxxx  xxxx
    xx  xxxxxx  x_x_
    xx  xxx_xx  xxx_
    xx  xxxxxx  x_.x
    xx  xxxxxx  xxx_
    xx  xxxxxx  x_x_]
SCL_DEG[-5123455#6b67+1]
SCL_SEM[5 2 2 1 2 1 0 1 2 1]

